!!!COM: Scriabin, Alexander
!!!OTL@@FR: Feuillet d'album
!!!OTL@@EN: Album Leaf
!!!OPR@@FR: 3 Morceaux
!!!OPR@@EN: 3 Pieces
!!!OPS: 45
!!!ONM: 1
!!!ODT: 1904
!!!AGN: Miniature
**kern	**kern	**dynam
*staff2	*staff1	*staff1/2
*Ipiano	*Ipiano	*
*clefF4	*clefG2	*
*k[b-e-a-]	*k[b-e-a-]	*
*E-:	*E-:	*
*M3/4	*M3/4	*
=1	=1	=1
*	*^	*
4e-	4ryy	8r	p
.	.	[8e-	.
4c-X	2e-]	8fL	.
.	.	8f#X	.
4B-	.	8g	.
.	.	8ddJ	.
=2	=2	=2	=2
2An	2.e- 2.g	8ccL	.
.	.	8bnJ	.
.	.	4.ee-	.
4B-	.	.	.
.	.	8cc	<
=3	=3	=3	=3
*	*	*^	*
2.A-X	2d\	2.g	8ccL	.
.	.	.	8cc-XJ	.
.	.	.	4.gg	.
.	4d\	.	.	.
.	.	.	8cc-	.
*	*	*v	*v	*
=4	=4	=4	=4
2.G	2.e- 2.g	8cc-XL	>
.	.	8b-J	)
.	.	2ee-	]
*	*v	*v	*
=5	=5	=5
*^	*	*
4c	2.e-	8r	.
.	.	8g	.
4c-X	.	8a-L	<
.	.	8an	(
4G	.	8b-	(
.	.	8ee-J	(
*v	*v	*	*
=6	=6	=6
*	*^	*
4r	4rc	8ggL	(
.	.	8ffJ	[
[2F [2e- [2an	[2bn [2ff	[2ddd	.
!!LO:LB:g=original
=7	=7	=7	=7
*	*	*^	*
2.F] 2.e-] 2.a]	8b\L]	4ff]	8dddL]	.
.	8ccJ	.	8ccc	.
.	4ryy	4r	8aan	.
.	.	.	8gg	.
.	4ryy	4r	8dd	.
.	.	.	8ccJ	.
*	*	*v	*v	*
=8	=8	=8	=8
2.BB- 2.A-X	2.d	8ccL	.
.	.	8cc-XJ	.
.	.	8ffL	.
.	.	8b-J	>
.	.	12dL	.
.	.	12g	.
.	.	12fJ	.
=9	=9	=9	=9
4e-	4ryy	8r	p
.	.	[8e-	.
4c-X	2e-]	8fL	.
.	.	8f#X	.
4B-	.	8g	.
.	.	8ddJ	.
=10	=10	=10	=10
*^	*	*^	*
2An	2.e-	2.g\	4re	8ccL	.
.	.	.	.	[8bnJ	.
.	.	.	4.b]	4.ff	.
4A	.	.	.	.	.
.	.	.	8re	8cc	.
=11	=11	=11	=11	=11	=11
2A-X	2.e--	2.g-X\	4re	8ccL	<
.	.	.	.	[8cc-XJ	.
.	.	.	4.cc-]	4.gg-X	.
4A-	.	.	.	.	.
.	.	.	8re	8ccn	.
=12	=12	=12	=12	=12	=12
2.G	2.d-X	2.f\	4re	8ccL	.
.	.	.	.	[8b-J	.
.	.	.	4.b-]	4.ggn	.
.	.	.	8re	8dd-X	.
*	*	*	*v	*v	*
*v	*v	*	*	*
!!LO:LB:g=original
=13	=13	=13	=13
8enL	4ryy	12dd-X\L	.
.	.	12an	.
8B-J	.	.	f
.	.	[12b-J	.
.	.	8qdd-	.
12CL	2b-]	4.aa-	.
12B-	.	.	.
12eJ	.	.	.
*clefG2	*	*	*
8dd-X	.	.	.
8r	.	8gg	.
*clefF4	*	*	*
=14	=14	=14	=14
*	*	*^	*
12r	8g\L	4.ee-X	8bb-XL	.
12FL	.	.	.	.
.	8a-J	.	8aa-	.
12c-XJ	.	.	.	.
*clefG2	*	*	*	*
12e-L	8cc-X\	.	8gg	.
12a-	.	.	.	.
.	8re	8re	8ff	.
12cc-XJ	.	.	.	.
4r	4re	4re	8ee-	.
.	.	.	8cc-J	.
*	*	*v	*v	*
*clefF4	*	*	*
=15	=15	=15	=15
8dL	4ryy	12cc-XL	.
.	.	12g	.
8A-J	.	.	.
.	.	[12a-J	.
.	.	8qcc-	.
12BB-L	2a-]	4.gg	.
12A-	.	.	.
12dJ	.	.	.
*clefG2	*	*	*
8cc-X	.	.	.
8r	.	8ff	.
*clefF4	*	*	*
=16	=16	=16	=16
*^	*	*^	*
12r	4ryy	8f\L	4ee-	8aa-L	.
12E-L	.	.	.	.	.
.	.	8gJ	.	8ggJ	.
12B-J	.	.	.	.	.
12gL	12ryy	8b-\	4ryy	8ff	.
12c-	[6c-X	.	.	.	.
.	.	8re	.	4an	.
12E-J	.	.	.	.	.
12GGL	6c-]	4e-\	4ryy	.	.
12E-	.	.	.	.	.
.	.	.	.	8b-	.
12B-J	12B-	.	.	.	.
*	*	*	*v	*v	*
*v	*v	*	*	*
!!LO:LB:g=original
=17	=17	=17	=17
8AnL	2.e-	12ddL	.
.	.	12f	.
8E-J	.	.	.
.	.	12g-XJ	.
.	.	8qg-	.
12FFL	.	4.dd	.
12E-	.	.	.
12AJ	.	.	.
8g-X	.	.	.
8r	.	8cc	.
=18	=18	=18	=18
*^	*	*	*
*	*^	*	*	*
12A\L	12ryy	N[[4An	2.e-	8ccL	.
12Gn	N[[6Gn/	.	.	.	.
.	.	.	.	8cc-XJ	.
N[12BB-J	.	.	.	.	.
*	*v	*v	*	*	*
*v	*v	*	*	*
4BB-N_ 4GN__ 4A\N]]	.	4.ee-	.
4BB-N] 4GN]] 4B-	.	.	.
.	.	8b-	.
=19	=19	=19	=19
*^	*	*	*
[2.BB-	2F 2c	2e-	8b-L	.
.	.	.	8anJ	.
.	.	.	8ee-	.
.	.	.	4a-X	.
.	[4A- [4c-X	[4e-	.	>
.	.	.	8g	.
*v	*v	*	*	*
=20	=20	=20	=20
2.BB-] 2.A-] 2.c-]	4e-]	8cc-X	.
.	.	4g-X	.
.	2d	.	.
.	.	8f	.
.	.	8a-L	>
.	.	8f-XJ	]
=21	=21	=21	=21
*	*	*^	*
4r	4ryy	4ryy	8r	p
.	.	.	[8e-	.
4c-X	2e-\]	4ryy	8fL	.
.	.	.	8f#X	.
4B-	.	4g	8g	.
.	.	.	8ddJ	.
*	*	*v	*v	*
!!LO:LB:g=original
=22	=22	=22	=22
2.An	2.e- 2.g	8ccL	.
.	.	8bnJ	.
.	.	4.ee-	.
.	.	8cc	.
=23	=23	=23	=23
2.BB- 2.A-X	2.d 2.g	8ccL	.
.	.	8cc-XJ	.
.	.	4.gg	.
.	.	8cc-	.
=24	=24	=24	=24
4EE- 4BB- 4G	4e- 4g	8cc-XL	.
.	.	8b-J	.
4r	4re	[2ccc-X	.
4r	4re	.	.
*	*v	*v	*
=25	=25	=25
2.r	8ccc-L]	.
.	8bb-	.
.	8gg	.
.	8ee-	.
.	8cc-X	.
.	8gJ	.
=26	=26	=26
2.r	2.cc-X	.
=27	=27	=27
2.r	2b-	.
.	4r	.
==	==	==
*-	*-	*-
!!!system-decoration: {(*)}
!!!filter: flipper -a
!!!RDF**kern: N = linked
!!!RDF**dynam: > = dim.
!!!ENC: Bryan Jacob Bell
!!!END: November 2021 to April 2022
!!!PED: Günter Philipp
!!!PTL: Ausgewählte Klavierwerke (Edition Peters)
!!!URL-pdf: https://github.com/bel28kent/Mysterium/blob/main/reference_editions/op45.pdf
